static/img/icons-shape-simple.svg

<svg width="240" height="240" viewBox="0 0 240 240" fill="none" xmlns="http://www.w3.org/2000/svg"><path fill="#fff" d="M0 0h240v240H0z"/><path stroke="#DFDFDF" d="M39.5 39.5h160v160h-160z"/><path d="M49.5 39.5v160m10-160v160m10-160v160m10-160v160m10-160v160m10-160v160m10-160v160m10-160v160m10-160v160m10-160v160m10-160v160m10-160v160m10-160v160m10-160v160m10-160v160m10-150h-160m160 10h-160m160 10h-160m160 10h-160m160 10h-160m160 10h-160m160 10h-160m160 10h-160m160 10h-160m160 10h-160m160 10h-160m160 10h-160m160 10h-160m160 10h-160m160 10h-160" stroke="#DFDFDF" stroke-linecap="square"/><path fill-rule="evenodd" clip-rule="evenodd" d="M211 39c5.523 0 10-4.477 10-10s-4.477-10-10-10-10 4.477-10 10 4.477 10 10 10Z" fill="#17AA55"/><path d="m207 29.069 2.981 2.98 6.05-6.049" stroke="#fff" stroke-width="2" stroke-linecap="round"/><path d="M179.374 103.093V179.5H59.626v-77.281l-.754.443-8.761 5.156c-3.356 1.975-7.673.846-9.642-2.525-1.97-3.373-.842-7.709 2.516-9.685L119.5 50.58l76.515 45.028c3.357 1.976 4.485 6.312 2.516 9.685-1.969 3.371-6.286 4.5-9.642 2.525l-8.761-5.156-.754-.443v.874Zm-14.093-8.882v-.286l-.247-.145-45.28-26.647-.254-.15-.254.15-45.28 26.647-.247.145v71.423h26.156v-45.457h39.25v45.457h26.156V94.211Zm-40.75 71.137h.5v-31.305h-11.062v31.305h10.562Z" fill="#6E49CB" fill-opacity=".3" stroke="#6E49CB"/></svg>

<svg width="240" height="240" xmlns="http://www.w3.org/2000/svg"><g fill="none" fill-rule="evenodd"><path fill="#FFF" d="M0 0h240v240H0z"/><g stroke="#DFDFDF"><path d="M39.5 39.5h160v160h-160z"/><g stroke-linecap="square"><path d="M49.5 39.5v160M59.5 39.5v160M69.5 39.5v160M79.5 39.5v160M89.5 39.5v160M99.5 39.5v160M109.5 39.5v160M119.5 39.5v160M129.5 39.5v160M139.5 39.5v160M149.5 39.5v160M159.5 39.5v160M169.5 39.5v160M179.5 39.5v160M189.5 39.5v160M199.5 49.5h-160M199.5 59.5h-160M199.5 69.5h-160M199.5 79.5h-160M199.5 89.5h-160M199.5 99.5h-160M199.5 109.5h-160M199.5 119.5h-160M199.5 129.5h-160M199.5 139.5h-160M199.5 149.5h-160M199.5 159.5h-160M199.5 169.5h-160M199.5 179.5h-160M199.5 189.5h-160"/></g></g><path d="M129.5 129.5h-20v30h-30V93.917l40.002-23.096L159.5 93.914V159.5h-30v-30zm-9.998-81.773L44.843 90.832c-4.783 2.761-6.421 8.877-3.66 13.66a10.003 10.003 0 0 0 8.812 5.008c1.16-.016 4.16-.016 9.007 0l.498.002V179.5h120v-69.998l.498-.002c4.85-.017 7.851-.017 9.01 0a10.003 10.003 0 0 0 8.813-5.008c2.762-4.783 1.123-10.899-3.66-13.66l-74.659-43.105z" stroke="#6E49CB" fill-opacity=".3" fill="#6E49CB"/><g transform="translate(201 19)"><circle fill="#17AA55" cx="10" cy="10" r="10"/><path stroke="#FFF" stroke-width="2" stroke-linecap="round" d="M6 10.069l2.98 2.98L15.03 7"/></g></g></svg>
